src/assets/icons/days,fancy,wednesday.svg

<svg width="48" height="48" viewBox="0 0 48 48" fill="none" xmlns="http://www.w3.org/2000/svg">
<rect opacity="0.2" x="4" y="6" width="40" height="40" rx="4" fill="black"/>
<path d="M10.5437 39H14.1403L17.4556 27.5881H17.592L20.9158 39H24.5124L29.5067 21.5455H25.4755L22.5863 33.6989H22.4329L19.2539 21.5455H15.8022L12.6147 33.6733H12.4698L9.58061 21.5455H5.54936L10.5437 39ZM35.9734 39.2557C39.212 39.2557 41.3938 37.679 41.9052 35.25L38.5472 35.0284C38.1808 36.0256 37.2433 36.5455 36.033 36.5455C34.2177 36.5455 33.0671 35.3438 33.0671 33.392V33.3835H41.9819V32.3864C41.9819 27.9375 39.2887 25.7386 35.8285 25.7386C31.9762 25.7386 29.479 28.4744 29.479 32.5142C29.479 36.6648 31.9421 39.2557 35.9734 39.2557ZM33.0671 31.1335C33.1438 29.642 34.2773 28.4489 35.8881 28.4489C37.4648 28.4489 38.5558 29.5739 38.5643 31.1335H33.0671Z" fill="black"/>
<g opacity="0.4">
<path d="M10 4C10 2.89543 10.8954 2 12 2C13.1046 2 14 2.89543 14 4V8C14 9.10457 13.1046 10 12 10C10.8954 10 10 9.10457 10 8V4Z" fill="black"/>
<path d="M34 4C34 2.89543 34.8954 2 36 2C37.1046 2 38 2.89543 38 4V8C38 9.10457 37.1046 10 36 10C34.8954 10 34 9.10457 34 8V4Z" fill="black"/>
</g>
<path fill-rule="evenodd" clip-rule="evenodd" d="M10 6.00869C7.52043 6.04456 6.11466 6.22849 5.17157 7.17157C4 8.34315 4 10.2288 4 14V16H44V14C44 10.2288 44 8.34315 42.8284 7.17157C41.8853 6.22849 40.4796 6.04456 38 6.00869V8C38 9.10457 37.1046 10 36 10C34.8954 10 34 9.10457 34 8V6H14V8C14 9.10457 13.1046 10 12 10C10.8954 10 10 9.10457 10 8V6.00869Z" fill="black"/>
</svg>

<svg xmlns="http://www.w3.org/2000/svg" width="48" height="48" fill="none" viewBox="0 0 48 48">
  <rect width="40" height="40" x="4" y="6" fill="#000" opacity=".2" rx="4"/>
  <path fill="#000" d="M10.544 39h3.596l3.316-11.412h.136L20.916 39h3.596l4.995-17.454h-4.032l-2.889 12.153h-.153l-3.18-12.153h-3.45l-3.188 12.127h-.145L9.58 21.545H5.55L10.543 39zm25.43.256c3.238 0 5.42-1.577 5.931-4.006l-3.358-.222c-.366.998-1.304 1.517-2.514 1.517-1.815 0-2.966-1.201-2.966-3.153v-.009h8.915v-.997c0-4.449-2.693-6.647-6.154-6.647-3.852 0-6.349 2.735-6.349 6.775 0 4.15 2.463 6.742 6.494 6.742zm-2.907-8.122c.077-1.492 1.21-2.685 2.821-2.685 1.577 0 2.668 1.125 2.676 2.684h-5.497z"/>
  <g opacity=".4">
    <path fill="#000" d="M10 4a2 2 0 114 0v4a2 2 0 11-4 0V4zM34 4a2 2 0 114 0v4a2 2 0 11-4 0V4z"/>
  </g>
  <path fill="#000" fill-rule="evenodd" d="M10 6.009c-2.48.036-3.885.22-4.828 1.163C4 8.343 4 10.229 4 14v2h40v-2c0-3.771 0-5.657-1.172-6.828-.943-.944-2.348-1.127-4.828-1.163V8a2 2 0 11-4 0V6H14v2a2 2 0 11-4 0V6.009z" clip-rule="evenodd"/>
</svg>
